assets/icons/explore-fill.svg

<svg width="20" height="20" viewBox="0 0 20 20" fill="none" xmlns="http://www.w3.org/2000/svg">
<path d="M7.1 13.4L11.14 12.24C11.4067 12.16 11.6368 12.0232 11.8304 11.8296C12.024 11.636 12.1605 11.4061 12.24 11.14L13.4 7.1C13.44 6.95333 13.4035 6.8232 13.2904 6.7096C13.1773 6.596 13.0472 6.55947 12.9 6.6L8.86 7.76C8.59333 7.84 8.36347 7.9768 8.1704 8.1704C7.97733 8.364 7.84053 8.59386 7.76 8.86L6.6 12.9C6.56 13.0467 6.5968 13.1768 6.7104 13.2904C6.824 13.404 6.95387 13.4405 7.1 13.4ZM10 11.2C9.66667 11.2 9.38347 11.0835 9.1504 10.8504C8.91733 10.6173 8.80053 10.3339 8.8 10C8.79947 9.66613 8.91627 9.38293 9.1504 9.1504C9.38453 8.91786 9.66773 8.80106 10 8.8C10.3323 8.79893 10.6157 8.91573 10.8504 9.1504C11.0851 9.38506 11.2016 9.66826 11.2 10C11.1984 10.3317 11.0819 10.6152 10.8504 10.8504C10.6189 11.0856 10.3355 11.2021 10 11.2ZM10 18C8.89333 18 7.85333 17.7899 6.88 17.3696C5.90667 16.9493 5.06 16.3795 4.34 15.66C3.62 14.9405 3.05013 14.0939 2.6304 13.12C2.21067 12.1461 2.00053 11.1061 2 10C1.99947 8.89386 2.2096 7.85387 2.6304 6.88C3.0512 5.90613 3.62107 5.05947 4.34 4.34C5.05893 3.62053 5.9056 3.05067 6.88 2.6304C7.8544 2.21013 8.8944 2 10 2C11.1056 2 12.1456 2.21013 13.12 2.6304C14.0944 3.05067 14.9411 3.62053 15.66 4.34C16.3789 5.05947 16.9491 5.90613 17.3704 6.88C17.7917 7.85387 18.0016 8.89386 18 10C17.9984 11.1061 17.7883 12.1461 17.3696 13.12C16.9509 14.0939 16.3811 14.9405 15.66 15.66C14.9389 16.3795 14.0923 16.9496 13.12 17.3704C12.1477 17.7912 11.1077 18.0011 10 18Z" fill="currentColor"/>
</svg>

<svg xmlns="http://www.w3.org/2000/svg" width="20" height="20" fill="none" viewBox="0 0 20 20"><path fill="currentColor" d="m7.1 13.4 4.04-1.16a1.62 1.62 0 0 0 1.1-1.1L13.4 7.1a.38.38 0 0 0-.11-.39.38.38 0 0 0-.39-.11L8.86 7.76q-.4.12-.69.41a1.6 1.6 0 0 0-.41.69L6.6 12.9a.38.38 0 0 0 .11.39q.171.17.39.11m2.9-2.2q-.5 0-.85-.35A1.16 1.16 0 0 1 8.8 10q0-.5.35-.85.352-.348.85-.35.498-.001.85.35.353.352.35.85a1.18 1.18 0 0 1-.35.85 1.14 1.14 0 0 1-.85.35m0 6.8a7.8 7.8 0 0 1-3.12-.63 8.1 8.1 0 0 1-2.54-1.71 8.1 8.1 0 0 1-1.71-2.54A7.8 7.8 0 0 1 2 10q0-1.659.63-3.12.632-1.46 1.71-2.54a8.1 8.1 0 0 1 2.54-1.71A7.8 7.8 0 0 1 10 2q1.659 0 3.12.63t2.54 1.71a8.1 8.1 0 0 1 1.71 2.54q.633 1.461.63 3.12a7.8 7.8 0 0 1-.63 3.12 8 8 0 0 1-1.71 2.54 8.1 8.1 0 0 1-2.54 1.71A7.75 7.75 0 0 1 10 18"/></svg>
